**kern	**kern	**dynam
*part1	*part1	*part1
*staff2	*staff1	*
*I"Piano	*	*
*clefF4	*clefG2	*
*k[f#c#g#d#a#]	*k[f#c#g#d#a#]	*
=1	=1	=1
*^	*^	*
4B	2.BB	4dd#	8dd#L	.
.	.	.	8f#	.
4F#	.	4b	8b	.
.	.	.	8f#	.
4d#	.	4ff#	8ff#	.
.	.	.	8f#J	.
=	=	=	=	=
4A#	2.FF#	4cc#	8cc#L	.
.	.	.	8f#	.
4G#	.	4b	8b	.
.	.	.	8f#	.
4A#	.	4cc#	8cc#	.
.	.	.	8f#J	.
=	=	=	=	=
4B	2.BB	4dd#	8dd#L	.
.	.	.	8f#	.
4F#	.	4b	8b	.
.	.	.	8f#	.
4d#	.	4ff#	8ff#	.
.	.	.	8f#J	.
*	*	*v	*v	*
=	=	=	=
4BB	2.BB	4r	f
4F#	.	(8ff#L 8ddd#	.
.	.	8dd#)	.
4B	.	(8dd# 8bb	.
.	.	8bJ)	.
=	=	=	=
4BB	2.BB	4r	.
4F#	.	(8dd#L 8bb	.
.	.	8bJ)	.
4B	.	(8bL 8ff#	.
.	.	8f#J)	.
=	=	=	=
4BBB	2.BBB	4r	.
!	!	!LO:TX:b:i:t=dimin.	!
4FF#	.	(8bL 8ff#	.
.	.	8f#J)	.
4BB	.	(8f#L 8dd#	.
.	.	8d#J)	.
=	=	=	=
4BBB	2.BBB	4r	.
4FF#	.	(8f#L 8dd#	.
.	.	8d#J)	.
4BB	.	(8d#L 8b	.
.	.	8BJ)	.
=	=	=	=
4BBB	2.BBB	4r	.
4FF#	.	(8d#L 8b	.
.	.	8BJ)	.
4BB	.	(8BL 8f#	.
.	.	8F#J<)	.
*v	*v	*	*
=	=	=
*-	*-	*-
!!!system-decoration: {(s1,s2)}
!!!RDF**kern: < = below
